src/pos-icons/shoe-print.svg

<svg height="24" viewBox="0 0 24 24" width="24" xmlns="http://www.w3.org/2000/svg"><path d="m10.74 11.72c.47 1.23.42 2.51-.99 3.02-2.9 1.07-3.55-1.74-3.59-1.88zm-5.03-.81 4.32-1.07c-.19-1.05.1-2.1.1-3.34 0-1.68-1.33-4.97-3.45-4.44-2.42.6-2.77 3.29-2.68 4.59.12 1.3 1.64 4.08 1.71 4.26m12.14 8.94c-.03.15-.69 2.95-3.59 1.89-1.4-.52-1.46-1.8-.99-3.03zm2.15-6.2c.1-1.3-.24-4-2.67-4.6-2.11-.55-3.44 2.76-3.44 4.45 0 1.23.28 2.28.11 3.33l4.3 1.07c.08-.18 1.59-2.96 1.7-4.25z"/></svg>

<?xml version="1.0" encoding="UTF-8"?><!DOCTYPE svg PUBLIC "-//W3C//DTD SVG 1.1//EN" "http://www.w3.org/Graphics/SVG/1.1/DTD/svg11.dtd"><svg xmlns="http://www.w3.org/2000/svg" xmlns:xlink="http://www.w3.org/1999/xlink" version="1.1" id="mdi-shoe-print" width="24" height="24" viewBox="0 0 24 24"><path d="M10.74,11.72C11.21,12.95 11.16,14.23 9.75,14.74C6.85,15.81 6.2,13 6.16,12.86L10.74,11.72M5.71,10.91L10.03,9.84C9.84,8.79 10.13,7.74 10.13,6.5C10.13,4.82 8.8,1.53 6.68,2.06C4.26,2.66 3.91,5.35 4,6.65C4.12,7.95 5.64,10.73 5.71,10.91M17.85,19.85C17.82,20 17.16,22.8 14.26,21.74C12.86,21.22 12.8,19.94 13.27,18.71L17.85,19.85M20,13.65C20.1,12.35 19.76,9.65 17.33,9.05C15.22,8.5 13.89,11.81 13.89,13.5C13.89,14.73 14.17,15.78 14,16.83L18.3,17.9C18.38,17.72 19.89,14.94 20,13.65Z" /></svg>
